svg/book_off_outline.svg

<svg xmlns="http://www.w3.org/2000/svg" viewBox="0 0 24 24"><path d="m6 14.8-2 2V4a2 2 0 0 1 2-2h12c.24 0 .47.04.68.12L16.8 4H13v3.8L10.79 10l-.29-.25L8 12V4H6zM22.89 3 20 5.89V20c0 1.11-.89 2-2 2H6c-.58 0-1.1-.25-1.46-.65l-1.38 1.38-1.27-1.27L21.61 1.73zM18 7.89l-12 12V20h12z"/></svg>

<?xml version="1.0" encoding="UTF-8"?><!DOCTYPE svg PUBLIC "-//W3C//DTD SVG 1.1//EN" "http://www.w3.org/Graphics/SVG/1.1/DTD/svg11.dtd"><svg xmlns="http://www.w3.org/2000/svg" xmlns:xlink="http://www.w3.org/1999/xlink" version="1.1" id="mdi-book-off-outline" width="24" height="24" viewBox="0 0 24 24"><path d="M6 14.8L4 16.8V4C4 2.9 4.89 2 6 2H18C18.24 2 18.47 2.04 18.68 2.12L16.8 4H13V7.8L10.79 10L10.5 9.75L8 12V4H6V14.8M22.89 3L20 5.89V20C20 21.11 19.11 22 18 22H6C5.42 22 4.9 21.75 4.54 21.35L3.16 22.73L1.89 21.46L21.61 1.73L22.89 3M18 7.89L6 19.89V20H18V7.89Z" /></svg>
